assets/img/ui/icon-close.svg

<svg width="20" height="20" viewBox="0 0 20 20" fill="none" xmlns="http://www.w3.org/2000/svg">
<circle cx="10" cy="10" r="10" fill="white"/>
<path d="M11.7497 10L14.3739 7.37581C14.6959 7.05379 14.6959 6.53167 14.3739 6.20938L13.7907 5.62616C13.4686 5.30414 12.9465 5.30414 12.6242 5.62616L10 8.25038L7.37581 5.62616C7.05379 5.30414 6.53167 5.30414 6.20938 5.62616L5.62616 6.20938C5.30414 6.53141 5.30414 7.05352 5.62616 7.37581L8.25038 10L5.62616 12.6242C5.30414 12.9463 5.30414 13.4684 5.62616 13.7907L6.20938 14.3739C6.53141 14.6959 7.05379 14.6959 7.37581 14.3739L10 11.7497L12.6242 14.3739C12.9463 14.6959 13.4686 14.6959 13.7907 14.3739L14.3739 13.7907C14.6959 13.4686 14.6959 12.9465 14.3739 12.6242L11.7497 10Z" fill="black"/>
</svg>

<svg width="20" height="20" fill="none" xmlns="http://www.w3.org/2000/svg"><circle cx="10" cy="10" r="10" fill="#fff"/><path d="M11.75 10l2.624-2.624a.825.825 0 000-1.167l-.583-.583a.825.825 0 00-1.167 0L10 8.25 7.376 5.626a.825.825 0 00-1.167 0l-.583.583a.825.825 0 000 1.167L8.25 10l-2.624 2.624a.825.825 0 000 1.167l.583.583a.825.825 0 001.167 0L10 11.75l2.624 2.624a.825.825 0 001.167 0l.583-.583a.825.825 0 000-1.167L11.75 10z" fill="#000"/></svg>
